domfk/img/social/inst-2.svg

<svg width="27" height="27" viewBox="0 0 27 27" fill="none" xmlns="http://www.w3.org/2000/svg">
<g clip-path="url(#clip0_739_130)">
<circle cx="13" cy="13" r="13" fill="url(#paint0_linear_739_130)"/>
<path d="M17.2776 7.80005H9.37255C8.48005 7.80005 7.80005 8.48005 7.80005 9.37255V17.2775C7.80005 18.17 8.48005 18.85 9.37255 18.85H17.2776C18.1701 18.85 18.85 18.17 18.85 17.2775V9.37255C18.85 8.48005 18.1701 7.80005 17.2776 7.80005ZM13.325 16.64C15.1525 16.64 16.64 15.195 16.64 13.4525C16.64 13.155 16.5975 12.815 16.5125 12.56H17.4475V17.065C17.4475 17.2775 17.2775 17.49 17.0225 17.49H9.62755C9.41505 17.49 9.20255 17.32 9.20255 17.065V12.5175H10.1801C10.0951 12.815 10.0526 13.1125 10.0526 13.41C10.0101 15.195 11.4975 16.64 13.325 16.64ZM13.325 15.365C12.135 15.365 11.2 14.43 11.2 13.2825C11.2 12.135 12.135 11.2 13.325 11.2C14.515 11.2 15.45 12.135 15.45 13.2825C15.45 14.4725 14.515 15.365 13.325 15.365ZM17.4051 10.8175C17.4051 11.0725 17.1925 11.285 16.9375 11.285H15.7475C15.4925 11.285 15.2801 11.0725 15.2801 10.8175V9.67005C15.2801 9.41505 15.4925 9.20255 15.7475 9.20255H16.9375C17.1925 9.20255 17.4051 9.41505 17.4051 9.67005V10.8175Z" fill="white"/>
</g>
<defs>
<linearGradient id="paint0_linear_739_130" x1="5.525" y1="23.075" x2="22.75" y2="5.2" gradientUnits="userSpaceOnUse">
<stop stop-color="#EEA054"/>
<stop offset="0.502762" stop-color="#D64763"/>
<stop offset="1" stop-color="#B62A99"/>
</linearGradient>
<clipPath id="clip0_739_130">
<rect width="26" height="26" fill="white" transform="translate(0.198486 0.0141602)"/>
</clipPath>
</defs>
</svg>

<svg width="27" height="27" fill="none" xmlns="http://www.w3.org/2000/svg"><g clip-path="url(#clip0_739_130)"><circle cx="13" cy="13" r="13" fill="url(#paint0_linear_739_130)"/><path d="M17.278 7.8H9.373C8.48 7.8 7.8 8.48 7.8 9.373v7.905c0 .892.68 1.572 1.573 1.572h7.905c.892 0 1.572-.68 1.572-1.573V9.373c0-.893-.68-1.573-1.572-1.573zm-3.953 8.84c1.828 0 3.315-1.445 3.315-3.188a3.02 3.02 0 00-.128-.892h.936v4.505c0 .212-.17.425-.425.425H9.628a.426.426 0 01-.425-.425v-4.548h.977a3.235 3.235 0 00-.127.893c-.043 1.785 1.444 3.23 3.272 3.23zm0-1.275c-1.19 0-2.125-.935-2.125-2.082 0-1.148.935-2.083 2.125-2.083s2.125.935 2.125 2.083c0 1.19-.935 2.082-2.125 2.082zm4.08-4.547a.472.472 0 01-.468.467h-1.19a.472.472 0 01-.467-.467V9.67c0-.255.213-.467.468-.467h1.19a.47.47 0 01.467.467v1.148z" fill="#fff"/></g><defs><linearGradient id="paint0_linear_739_130" x1="5.525" y1="23.075" x2="22.75" y2="5.2" gradientUnits="userSpaceOnUse"><stop stop-color="#EEA054"/><stop offset=".503" stop-color="#D64763"/><stop offset="1" stop-color="#B62A99"/></linearGradient><clipPath id="clip0_739_130"><path fill="#fff" transform="translate(.198 .014)" d="M0 0h26v26H0z"/></clipPath></defs></svg>
